/* XPM */
static char * cabinet64_xpm[] = {
/* width height ncolors cpp [x_hot y_hot] */
"64 64 14 1 0 0",
/* colors */
" 	s none	m none	c none",
".	s Color1	m black	c black",
"X	s Gray1	m white	c #dededededede",
"o	s Gray6	m black	c #636363636363",
"O	s bottomShadowColor	m black	c #636363636363",
"+	s Gray4	m white	c #949494949494",
"@	s Color2	m white	c white",
"#	s Gray2	m white	c #bdbdbdbdbdbd",
"$	s Color12	m white	c yellow",
"%	s Color11	m black	c darkkhaki",
"&	s Gray3	m white	c #adadadadadad",
"*	s Gray7	m black	c #424242424242",
"=	s Gray8	m black	c #212121212121",
"-	s Color8	m white	c blue",
/* pixels */
"      .Xooooooooooooooooooooooooooooooooooooooooooooo....XO     ",
"      .Xo.o.o.o.o.o.o.o.o.o.o.o.o.o.o.o.o.o.o.o.o.o.o....XO     ",
"      .X................................................+XO     ",
"      .X+.+..........................................+.+.XO     ",
"      .X.+.+........................................+.+.+XO     ",
"      .X+.+.+......................................+.+.+.XO     ",
"      .X.+.+.+.....+.+.+.+.+.+.+.+.+.+.+.+.+.+....+.+.+.+XO     ",
"      .X+.+.+.+...+.+.+.+.+.+.+.+.+.+.+.+.+.+....+.+.+.+.XO     ",
"      .X.+.+.+.+...+.+.+.+.+.+.+.+.+.+.+.+.+.+..+.+.+.+.+XO     ",
"      .X+.+.+.+...+.+.+.+.+.+.+.+.+.+.+.+.+.+....+.+.+.+.XO     ",
"      .X.+.+.+.+..XXXXXXXXXXXXXXXXXXXXXXXXXXXX..+.+.+.+.+XO     ",
"      .X+.+.+.+.@#.......XXXXXXXXXXXXXXXXXXXXX.@.+.+.+.+.XO     ",
"      .X.+.+.+.@#.$$$$$$$.XXXXXXXXXXXXXXXXXXXX.X@.+.+.+.+XO     ",
"      .X+.+.+.@#.%%%%%%%%$...................X.XX@.+.+.+.XO     ",
"      .X.+.+.@#.........%%$$$$$$$$$$$$$$$$$$$..&#X@.+.+.+XO     ",
"      .X+.+.@#.$$$$$$$$$.%%%%%%%%%%%%%%%%%%%%%%.&#X@.+.+.XO     ",
"      .X.+.@#.%%%%%%%%%%$........................#XX@.+.+XO     ",
"      .X+.@#............%$$$$$$$$$$$$$$$$$$$$$$$$.XXX@.+.XO     ",
"      .XX@#.$$$$$$$$$$$$.%%%%%%%%%%%%%%%%%%%%%%%%%.XXX@.+XO     ",
"      .X@#.$%%%%%%%%%%%%$............................XX@.XO     ",
"     .X@#.$%%%%%%%%%%%%%%$$$$$$$$$$$$$$$$$$$$$$$$$$$$.XX@X.     ",
"    .X@##.$%%%%%%%%%%%%%%%%%%%%%%%%%%%%%%%%%%%%%%%%%%.XXX@X.    ",
" .............................................................  ",
" .XXXXXXXXXXXXXXXXXXXXXXXXXXXXXXXXXXXXXXXXXXXXXXXXXXXXXXXXXXX.  ",
" .X++++++++++++++++++++++++++++++++++++++++++++++++++++++++&o.  ",
" .X+++++++++++++++++++++++++++++++++++++++++++++++++++++++++o.  ",
" .X+++++++++++++++++++++++++++++++++++++++++++++++++++++++++o.  ",
" .X+++++++++++++++++++++++++++++++++++++++++++++++++++++++++o.  ",
" .X+++++++++++++++++++++++++++++++++++++++++++++++++++++++++o.  ",
" .X+++++++++++++++++++++++++++++++++++++++++++++++++++++++++o.  ",
" .X++++++++++++++++++#####################++++++++++++++++++o.  ",
" .X++++++++++++++++++#*******************+=+++++++++++++++++o.  ",
" .X++++++++++++++++++#*X-X-X-X-X-X-X-X-X-+=+++++++++++++++++o.  ",
" .X++++++++++++++++++#*-X-X-X-X-X-X-X-X-X+=+++++++++++++++++o.  ",
" .X++++++++++++++++++#*X-X-X-X-X-X-X-X-X-+=+++++++++++++++++o.  ",
" .X++++++++++++++++++#*-X-X-X-X-X-X-X-X-X+=+++++++++++++++++o.  ",
" .X++++++++++++++++++#*X-X-X-X-X-X-X-X-X-+=+++++++++++++++++o.  ",
" .X++++++++++++++++++#*-X-X-X-X-X-X-X-X-X+=+++++++++++++++++o.  ",
" .X++++++++++++++++++#*X-X-X-X-X-X-X-X-X-+=+++++++++++++++++o.  ",
" .X++++++++++++++++++#++++++++++++++++++++=+++++++++++++++++o.  ",
" .X+++++++++++++++++++=====================+++++++++++++++++o.  ",
" .X+++++++++++++++++++++++++++++++++++++++++++++++++++++++++o.  ",
" .X+++++++++++++++++++++++++++++++++++++++++++++++++++++++++o.  ",
" .X+++++++++++++++++++++++++++++++++++++++++++++++++++++++++o.  ",
" .X+++++++++++++++++++++++++++++++++++++++++++++++++++++++++o.  ",
" .X+++++++++++++++++++++++++++++++++++++++++++++++++++++++++o.  ",
" .X+++++++++++++++++++++++++++++++++++++++++++++++++++++++++o.  ",
" .X+++++++++++++++++++++++++++++++++++++++++++++++++++++++++o.  ",
" .X++++++++++++++.X++++++++++++++++++++++++++X.+++++++++++++o.  ",
" .X++++++++++++++.X++++++++++++++++++++++++++X.+++++++++++++o.  ",
" .X+++++++++++++++.XXXXXXXXXXXXXXXXXXXXXXXXXX.++++++++++++++o.  ",
" .X++++++++++++++++..........................+++++++++++++++o.  ",
" .X+++++++++++++++++oooooooooooooooooooooooo++++++++++++++++o.  ",
" .X+++++++++++++++++++++++++++++++++++++++++++++++++++++++++o.  ",
" .X+++++++++++++++++++++++++++++++++++++++++++++++++++++++++o.  ",
" .X+++++++++++++++++++++++++++++++++++++++++++++++++++++++++o.  ",
" .X+++++++++++++++++++++++++++++++++++++++++++++++++++++++++o.  ",
" .X+++++++++++++++++++++++++++++++++++++++++++++++++++++++++o.  ",
" .X+++++++++++++++++++++++++++++++++++++++++++++++++++++++++o.  ",
" .X+++++++++++++++++++++++++++++++++++++++++++++++++++++++++o.  ",
" .Xoooooooooooooooooooooooooooooooooooooooooooooooooooooooooo.  ",
" .............................................................  ",
"     .ooooooooooooooooooooooooooooooooooooooooooooooooooo.      ",
"     .ooooooooooooooooooooooooooooooooooooooooooooooooooo.      "};
