/* XPM */
static char * chattr64_xpm[] = {
/* width height ncolors cpp [x_hot y_hot] */
"64 64 13 1 0 0",
/* colors */
" 	s none	m none	c none",
".	s Color5	m black	c darkgreen",
"X	s bottomShadowColor	m black	c #636363636363",
"o	s Gray5	m black	c #737373737373",
"O	s Gray8	m black	c #212121212121",
"+	s Color1	m black	c black",
"@	s Color2	m white	c white",
"#	s Gray6	m black	c #636363636363",
"$	s Gray2	m white	c #bdbdbdbdbdbd",
"%	s Gray1	m white	c #dededededede",
"&	s Gray4	m white	c #949494949494",
"*	s Color11	m black	c darkkhaki",
"=	s Color12	m white	c yellow",
/* pixels */
"                                                                ",
"                                                                ",
"           ...                                                  ",
"          ..XX                                                  ",
"  .o    ...X                                                    ",
"  ...  ...X                                                     ",
"  ........X                                                     ",
"   ......oO                                                     ",
"   O....XXOX    ++  ++ ++  ++                                   ",
"   OX...  OX    + + +  + + + +                                  ",
"   OX .X  OX    ++  ++ +++ + +                                  ",
"   OX     OX    + + +  + + + +                                  ",
"   OOOOOOOOX    + + ++ + + ++                                   ",
"    XXXXXXXX                                                    ",
"                                                                ",
"                                                                ",
"                                                                ",
"                                                                ",
"                                                                ",
"   OOOOOOOO                                                     ",
"   OXXXXXXOX                                                    ",
"   OX     OX    + + ++  ++++++                                  ",
"   OX     OX    + + + + + + +                                   ",
"   OX     OX    + + ++  + + ++                                  ",
"   OX     OX    +++ + + + + +                                   ",
"   OX     OX    + + + + + + ++                                  ",
"   OOOOOOOOX                                                    ",
"    XXXXXXXo                  +++++++++++++++++++++             ",
"                              +@@@@@@@@@@@@@@@@@@+++            ",
"           ...                +@@@@@@@@@@@@@@@@@@+@++           ",
"          ..XX                +@@@@@@@@@@@@@@@@@@+@@++          ",
"  .o    ...X                  +@@@@@@@@@@@@@@@@@@+@@@++         ",
"  ...  ...X                   +@@@@@@@@@@@@@@@@@@+@@@@++        ",
"  ........X                   +@@@@@@@@@@@@@@@@@@+++++++        ",
"   ......oO     ++ + + ++  +  +@@@@@@@@@@@@@@@@@@@@####+        ",
"   O....XXOX    +  + + +  + + +@@@@@@@@@@@@@@@@@@@@@@@#+        ",
"   OX...  OX    ++  +  ++ +   +@@@@@@@@@@@@@@@@@@@@@@@#+        ",
"   OX .X  OX    +  + + +  + + +@@@@@@@@@@@@@@@@@@@@@@@#+        ",
"   OX     OX    ++ + + ++  +  +@@@@@@@@@@@@@@@@@@@@@@@#+        ",
"   OOOOOOOOX                  +@@@@@@@@@@@@@@@@@@@@@@@#+        ",
"    XXXXXXXX                  +@@@@@@@@@@@@@@@@@@@@@@@#+        ",
"                              +@@@@@@@@$$$$$$$$@@@@@@@#+        ",
"                              +@@@@@@%+++++++++&@@@@@@#+        ",
"                              +@@@@@@+%*%*%*%*%+&@@@@@#+        ",
"                              +@@@@@+%*%*%*%*%*%+&&&&&&+        ",
"                              +@@@@+%*%*%*%*%*%*++++++++++++++  ",
"                              +@@@+%++*$*$*$*$*+@@@@@@@@@@@@@#+ ",
"                              +@@@+=%=+++++++++@%=%=%=%=%=%=%*+X",
"                              +@@@+%=%@@@@@@@@@%=%=%=%=%=%=%=#+X",
"                              +@@@+=%=%=%=%=%=%=%=%=%=%=%=%=%*+X",
"                              +@@@+%=%=%=%=%=%=%=%=%=%=%=%=%=#+X",
"                              +@@@+=%=%=%=%=%=%=%=%=%=%=%=%=%*+X",
"                              +@@@+%=%=%=%=%=%=%=%=%=%=%=%=%=#+X",
"                              +@@@+=%=%=%=%=%=%=%=%=%=%=%=%=%*+X",
"                              +@@@+%=%=%=%=%=%=%=%=%=%=%=%=%=#+X",
"                              +@@@+=%=%=%=%=%=%=%=%=%=%=%=%=%*+X",
"                              +@@@+%=%=%=%=%=%=%=%=%=%=%=%=%=#+X",
"                              +@@@+=%=%=%=%=%=%=%=%=%=%=%=%=%*+X",
"                              +@@@+%=%=%=%=%=%=%=%=%=%=%=%=%=#+X",
"                              ++##+=%=%=%=%=%=%=%=%=%=%=%=%=%*+X",
"                                +++%=%=%=%=%=%=%=%=%=%=%=%=%=#+X",
"                                  +*#*#*#*#*#*#*#*#*#*#*#*#*#*+X",
"                                   ++++++++++++++++++++++++++++X",
"                                    XXXXXXXXXXXXXXXXXXXXXXXXXXX "};
