/* XPM */
static char * copy64_xpm[] = {
/* width height ncolors cpp [x_hot y_hot] */
"64 64 11 1 0 0",
/* colors */
" 	s Color1	m black	c black",
".	s none	m none	c none",
"X	s Color2	m white	c white",
"o	s Gray1	m white	c #dededededede",
"O	s Gray5	m black	c #737373737373",
"+	s bottomShadowColor	m black	c #636363636363",
"@	s Gray6	m black	c #636363636363",
"#	s Color11	m black	c darkkhaki",
"$	s Gray2	m white	c #bdbdbdbdbdbd",
"%	s Color12	m white	c yellow",
"&	s Gray4	m white	c #949494949494",
/* pixels */
"                ................................................",
" XoXoXoXoXoXoX X ...............................................",
" oXoXoXoXoXoXo XX ..............................................",
" XoXoXoXoXoXoX XXX .............................................",
" oXoXoXoXoXoXo XXXX ............................................",
" XoXoXoXoXoXoX      ............................................",
" oXoXoXoXoXoXoXoOOO O...........................................",
" XoXoXoXoXoXoXoXoXO +...........................................",
" oXoXoXoXoXoXoXoXoO +...........................................",
" XoXoXoXXXoXoXoXoXO +...........................................",
" oXoXoXX@@@@@@@@XoO +...........................................",
" XoXoXX@#o#o#o#o@XO +...........................................",
" oXoXX@#o#o#o#o#$@@@@@@@@@@@@...................................",
" XoXX@#o#o#o#o#$#@XXXXXXXXXXX ..................................",
" oXo@%@#$#$#$#$#@X$%$%$%$%$%& ..................................",
" XoX@$%@@@@@@@@@X$%$%$%$%$%$# +.................................",
" oXo@%$XXXXXXXXX$%$%$%$%$%$%& +.....X...........................",
" XoX@$%$%$%$%$%$%$%$%$%$%$%$# +.....%...........................",
" oXo@%$%$%$%$%$%$%$%$%$%$%$%& +......&..........................",
" XoX@$%$%$%$%$%$%$%$%$%$%$%$# +.....X&..........................",
" oXo@%$%$%$%$%$%$%$%$%$%$%$%& +.....%&..........................",
" XoX@$%$%$%$%$%$%$%$%$%$%$%$# +......O..........................",
" oXo@%$%$%$%$%$%$%$%$%$%$%$%& +.....X&..........................",
" XoX@$%$%$%$%$%$%$%$%$%$%$%$# +.....%&..........................",
" oXo@%$%$%$%$%$%$%$%$%$%$%$%& +......O..........................",
"  @@@$%$%$%$%$%$%$%$%$%$%$%$# +.....%&.......X..................",
"..  @%$%$%$%$%$%$%$%$%$%$%$%& +.....%&......%...................",
"....@&#&#&#&#&#&#&#&#&#&#&#&# &      O      &      .............",
"....                         O &%XXXX&XXXX%&XXXXX X ............",
"......O+++++++++++++++++++++O. X&%XX%&XXX%&XXXXXX XX ...........",
".............................. XXOXX%XXXX&XXXXXXX XXX ..........",
".............................. XXX&%X&XX&XXXXXXXX XXXX .........",
".......... ................... XXXX&X%X%XXXXXXXXX XXXXX ........",
".......... @........X%.X%..X%. %X%XX%X&XX%%XX%%XX       ........",
".........  @..........O&&O&&&O&&&X&%X%X&X&&OO&&O&XX@@@@ +.......",
".........  @.................. XXXXX&X&XXXXXXXXXXXXXXX@ +.......",
"........   @.................. XXXXOX&XX%XXXXXXXXXXXXX@ +.......",
"........   @.................. XX%&XXXXX&XXXXXXXXXXXXX@ +.......",
"........   @.................. X%&XX%&XXXO%XXXXXXXXXXX@ +.......",
"........   @.................. X&XXXXOXXXX&%XXXXXXXXXX@ +.......",
"........    ........@.........XOXXXX%&XXXXX&%XXXXXXXXX@ +.......",
"........    @......@ @.......%&XXXXXXOXXXXXXXXXXXXXXXX@ +.......",
"........     @.....   @.....X. XXXXX%&         XXXXXXXO +.......",
"........      @....    @...... XXXXXX #o#o#o#o# XXXXXX@ +.......",
".........      @@@@     @..... XXXXX #o#o#o#o#o#              ..",
".........                @.... XXXX #o#o#o#o#o#$ XXXXXXXXXXXX$ .",
"..........                @... XXX o #$#$#$#$#$ Xo%o%o%o%o%o%& .",
"...........                @.. XXX %o          Xo%o%o%o%o%o%o# +",
".............               .. XXX o%XXXXXXXXXXo%o%o%o%o%o%o%& +",
"...............            ... XXX %o%o%o%o%o%o%o%o%o%o%o%o%o# +",
"...................       .... XXX o%o%o%o%o%o%o%o%o%o%o%o%o%& +",
"...................     ...... XXX %o%o%o%o%o%o%o%o%o%o%o%o%o# +",
"...................   ........ XXX o%o%o%o%o%o%o%o%o%o%o%o%o%& +",
"................... .......... XXX %o%o%o%o%o%o%o%o%o%o%o%o%o# +",
".............................. XXX o%o%o%o%o%o%o%o%o%o%o%o%o%& +",
".............................. XXX %o%o%o%o%o%o%o%o%o%o%o%o%o# +",
".............................. XXX o%o%o%o%o%o%o%o%o%o%o%o%o%& +",
".............................. XXX %o%o%o%o%o%o%o%o%o%o%o%o%o# +",
".............................. XXX o%o%o%o%o%o%o%o%o%o%o%o%o%& +",
"..............................  @@ %o%o%o%o%o%o%o%o%o%o%o%o%o# +",
"................................   o%o%o%o%o%o%o%o%o%o%o%o%o%& +",
".................................. #&#&#&#&#&#&#&#&#&#&#&#&#&# +",
"..................................                             +",
"....................................+++++++++++++++++++++++++++."};
