/* XPM */
static char * delete64_xpm[] = {
/* width height ncolors cpp [x_hot y_hot] */
"64 64 14 1 0 0",
/* colors */
" 	s Color1	m black	c black",
".	s none	m none	c none",
"X	s Color2	m white	c white",
"o	s Gray1	m white	c #dededededede",
"O	s Gray5	m black	c #737373737373",
"+	s bottomShadowColor	m black	c #636363636363",
"@	s Gray6	m black	c #636363636363",
"#	s Color11	m black	c darkkhaki",
"$	s Gray2	m white	c #bdbdbdbdbdbd",
"%	s Color12	m white	c yellow",
"&	s Gray4	m white	c #949494949494",
"*	s Color3	m black	c darkred",
"=	s Gray3	m white	c #adadadadadad",
"-	s Color5	m black	c darkgreen",
/* pixels */
"                ................................................",
" XoXoXoXoXoXoX X ...............................................",
" oXoXoXoXoXoXo XX ..............................................",
" XoXoXoXoXoXoX XXX .............................................",
" oXoXoXoXoXoXo XXXX ............................................",
" XoXoXoXoXoXoX      ............................................",
" oXoXoXoXoXoXoXoOOO O...........................................",
" XoXoXoXoXoXoXoXoXO +...........................................",
" oXoXoXoXoXoXoXoXoO +...........................................",
" XoXoXoXXXoXoXoXoXO +...........................................",
" oXoXoXX@@@@@@@@XoO +...........................................",
" XoXoXX@#o#o#o#o@XO +...........................................",
" oXoXX@#o#o#o#o#$@@@@@@@@@@@@...................................",
" XoXX@#o#o#o#o#$#@XXXXXXXXXXX ..................................",
" oXo@%@#$#$#$#$#@X$%$%$%$%$%& ..................................",
" XoX@$%@@@@@@@@@X$%$%$%$%$%$# +.................................",
" oXo@%$XXXXXXXXX$%$%$%$%$%$%& +.................................",
" XoX@$%$%$%$%$%$%$%$%$%$%$%$# +.................................",
" oXo@%$%$%$%$%$%$%$%$%$%$%$%& +.................................",
" XoX@$%$%$%$%$%$%$%$%$%$%$%$# +.................................",
" oXo@%$%$%$%$%$%$%$%$%$%$%$%& +.................................",
" XoX@$%$%$%$%$%$%$%$%$%$%$%$# +.................................",
" oXo@%$%$%$%$%$%$%$%$%$%$%$%& +.................................",
" XoX@$%$%$%$%$%$%$%$%$%$%$%$# +.................................",
" oXo@%$%$%$%$%$%$%$%$%$%$%$%& +.................................",
"  @@@$%$%$%$%$%$%$%$%$%$%$%$# +.................................",
"..  @%$%$%$%$%$%$%$%$%$%$%$%& +.................................",
"....@&#&#&#&#&#&#&#&#&#&#&#&# &.................................",
"....                         O..................................",
"......O+++++++++++++++++++++O...................................",
"......................................oooooooooooooooooo........",
".................................ooooo$$$$$$$$$$$$$$$$$$ooooo...",
"..........*.....................X$$$$$$$$$$$$$$$$$$$$$$$$$$$$o..",
"..........*@...................X$$$$$====================$$$$$o.",
".........**@...................X$&==========================&$o.",
".........**@...................oX&&&&&&&&&&&&&&&&&&&&&&&&&&&&o&.",
"........***@....................XXXXXX&&&&&&&&&&&&&&&&&ooooo$&..",
"........***@....................oXooooXXXXoXooXoXXoXoXXooooo$&..",
"........***@....................oXoooooooooooooooooooooooooo$&..",
"........***@....................oXooooooooooooooooooooooooo$&...",
"........****........@...........oXooooooooooooooooooooooooo$&...",
"........****@......@*@...........oXoooooooooooooooooooooooo$&...",
"........*****@.....***@..........oXooooooooo----oooo-oooooo$&...",
"........******@....****@.........oXoooooooo-------o--ooooo$&....",
".........******@@@@*****@........oXooooooo-----------ooooo$&....",
".........****************@........oXoooooo--ooo------ooooo$&....",
"..........****************@.......oXoooooo-ooooo-----ooooo$&....",
"...........****************@......oXoooooo-oooo------ooooo$.....",
".............***************......oXooooooooooooooooooooo$&.....",
"...............************........oXoooo------oooo-ooooo$&.....",
"...................*******.........oXoooo-----ooooo-ooooo$&.....",
"...................*****...........oXoooo------ooo--ooooo$=.....",
"...................***.............oXoooo-----------ooooo$......",
"...................*................oXooo--o-------ooooo$&......",
"....................................oXooo-oooo----oooooo$&......",
"....................................oXoooooooooooooooooo$&......",
"....................................oXoooooooooooooooooo$.......",
".....................................oXoooooooooooooooo$&.......",
".....................................oXoooooooooooooooo$&.......",
".....................................oXoooooooooooooooo$&.......",
".......................................&$$ooooooooo$$&&.........",
"........................................$&&&&&&&&&&&$...........",
"................................................................",
"................................................................"};
