/* XPM */
static char * filter64_xpm[] = {
/* width height ncolors cpp [x_hot y_hot] */
"64 64 14 1 0 0",
/* colors */
" 	s none	m none	c none",
".	s Color1	m black	c black",
"X	s Color2	m white	c white",
"o	s Gray6	m black	c #636363636363",
"O	s Gray1	m white	c #dededededede",
"+	s Gray5	m black	c #737373737373",
"@	s Color11	m black	c darkkhaki",
"#	s Gray4	m white	c #949494949494",
"$	s Color12	m white	c yellow",
"%	s bottomShadowColor	m black	c #636363636363",
"&	s Gray2	m white	c #bdbdbdbdbdbd",
"*	s Gray3	m white	c #adadadadadad",
"=	s Gray8	m black	c #212121212121",
"-	s Gray7	m black	c #424242424242",
/* pixels */
"                                                                ",
"                                                                ",
"                                                                ",
"                  ................                              ",
"                  .XXXXXXXXXXXXXX..                             ",
"                  .XXXXXXXXXXXXXX.X.                            ",
"                  .XXXXXXXXXXXXXX.XX.                           ",
"                  .XXXXXXXXXXXXXX.....                          ",
"                  .XXXXXXXXXXXXXXXooo.                          ",
"                  .XXXXXXXXXXXXXXXXXo.                          ",
"                  .XXXXXXXXXXXXXXXXXo.                          ",
"                  .XXXXXXXXXXXXXXXXXo.                          ",
"                  .XXXXXXXXXXXXXXXXXo.                          ",
"                  .XXXXXXXXXXXXXXXXXo.                          ",
"                  .XXXXO.......XXXXX+.                          ",
"                  .XXXX.O@O@O@O.XXXX#.                          ",
"                  .XXX.O@O@O@O@@..........                      ",
"                  .XX.$.O@O@O@O.XXXXXXXXX+.                     ",
"                  .XX.O$.......XO$O$O$O$O@.%                    ",
"                  .XX.$OXXXXXXXO$O$O$O$O$+.%                    ",
"                  .XX.O$O$O$O$O$O$O$O$O$O@.%                    ",
"                  .XX.$O$O$O$O$O$O$O$O$O$+.%                    ",
"                  .XX.O$O$O$O$O$O$O$O$O$O@.%                    ",
"                  .XX.$O$O$O$O$O$O$O$O$O$+.%                    ",
"                  .XX.O$O$O$O$O$O$O$O$O$O@.%                    ",
"                  .XX.$O$O$O$O$O$O$O$O$O$+.%                    ",
"                  .XX.O$O$O$O$O$O$O$O$O$O@.%                    ",
"                  ..o.$O$O$O$O$O$O$O$O$O$+.%                    ",
"                    ..+@+@+@+@+@+@+@+@+@+@.%                    ",
"                      .....................%                    ",
"                       %%%%%%%%%%%%%%%%%%%%                     ",
"                                                                ",
"                       &&&&&&&&&&&&&&&&&&                       ",
"                      &&&&&&&&&&&&&&&&&&&&                      ",
"                OOOOOO##++++++oooo++++++&&&&&&&                 ",
"              OO++&&&&##++++++oooo++++++&&&&+++&&&              ",
"            OO####++&&&##+++++oooo+++++&&&&+++####&             ",
"            OX####+++&&###++++oooo+++++&&&++++####&             ",
"            OX#####+++&&##++++oo++++++&&&+++######&             ",
"            ##OO####+++*&&#+++oo++++++&&++#####OOO=             ",
"             ##.OO#####+&&#+++oo+++++&&*++####OO==              ",
"              #.=#OOOO#++&#+++oo++++&&&+++OOOO#==               ",
"                ..ooo#OOXXOXOOXXXXOXOOXOOO#o--==                ",
"                 .--##oooooooooooooooooooo#--=                  ",
"                  .--*##OOO##+++++++#&####--.                   ",
"                   .--###OO###+++++#&&###--=                    ",
"                    .--###OO##+++++&&+##--=                     ",
"                     .--###O##++++#&###--=                      ",
"                      .--*#OO#++++&&##--.                       ",
"                       .--##OO++++&+#--=                        ",
"                        .--#OOo++&&#--=                         ",
"                         .--#Oo+o&#--=                          ",
"                          .--*O+o&--.                           ",
"                           .--O+oo-=                            ",
"                            .o*Ooo=                             ",
"                            .ooOoo=                             ",
"                            .ooOoo=                             ",
"                            .ooOoo=                             ",
"                            .ooOoo=                             ",
"                            .ooOoo=                             ",
"                            .ooOoo=                             ",
"                            .ooOoo=                             ",
"                            .oo#oo=                             ",
"                             .....                              "};
