/* XPM */
static char * hrglas64_xpm[] = {
/* width height ncolors cpp [x_hot y_hot] */
"64 64 7 1 0 0",
/* colors */
" 	s none	m none	c none",
".	s Color1	m black	c black",
"X	s Color2	m white	c white",
"o	s Gray7	m black	c #424242424242",
"O	s Gray6	m black	c #636363636363",
"+	s Gray5	m black	c #737373737373",
"@	s Gray8	m black	c #212121212121",
/* pixels */
"                                                                ",
"                                                                ",
"               ....................................             ",
"               ...X.XXX.XXXX...................X...             ",
"               ....................................             ",
"               ....................................             ",
"                  ..............................                ",
"                  .. .                        ..                ",
"                  . .                         X.                ",
"                  .. .                       X .                ",
"                  . .                       X X.                ",
"                  .. .                       X .                ",
"                  . .                       X X.                ",
"                  .. .                       X .                ",
"                  . .                       X X.                ",
"                   . .                     X X.                 ",
"                   ..                       X .                 ",
"                   . .                   X X X.                 ",
"                   .. .                   X X .                 ",
"                    ..                   X X .                  ",
"                    . .                 X X  .                  ",
"                     .                      .                   ",
"                      .oOOO+           oooo.                    ",
"                       .ooooOO      oooooo.                     ",
"                        .oooooOO  ooooooO.                      ",
"                         .oooooOoooooooo.                       ",
"                          .ooooOooooooo.                        ",
"                           .oooooooooo.                         ",
"                            .oooooooO.                          ",
"                             .oooooo.                           ",
"                              .oooo.                            ",
"                              .oooo.                            ",
"                             . @oo@ .                           ",
"                            .  @oo@  .                          ",
"                           .    o     .                         ",
"                          .      o     .                        ",
"                         .      +       .                       ",
"                        .        o       .                      ",
"                       .        +         .                     ",
"                      .          o        X.                    ",
"                     .          +          X.                   ",
"                    .            o        X X.                  ",
"                    .           +          X .                  ",
"                   .             o          X .                 ",
"                   .            +          X X.                 ",
"                   ..            o          X .                 ",
"                   .            +          X X.                 ",
"                  . .            o          X X.                ",
"                  ..           +ooo        X X .                ",
"                  . .          ++oo         X X.                ",
"                  ..          ++oooo       X X .                ",
"                  . .        ++o+oooo       X X.                ",
"                  ..        ++o+oooooo     X X .                ",
"                  . .      ++o+oooooooo     X X.                ",
"                  ..     +++o+ooooooooooo  X X .                ",
"                  . .   +o+o+ooooooooooooo  X X.                ",
"                  ..  ++o+o+oooooooooooooooo X .                ",
"                  . +++o+o+oooooooooooooooooooX.                ",
"                  .oooooooooooooooooooooooooooo.                ",
"               ....................................             ",
"               ....................................             ",
"               ...X.XXX.XXXX...................X...             ",
"               ....................................             ",
"                                                                "};
