/* XPM */
static char * mnterr64_xpm[] = {
/* width height ncolors cpp [x_hot y_hot] */
"64 64 12 1 0 0",
/* colors */
" 	s none	m none	c none",
".	s Color1	m black	c black",
"X	s Color3	m black	c darkred",
"o	s Gray8	m black	c #212121212121",
"O	s Gray7	m black	c #424242424242",
"+	s Gray1	m white	c #dededededede",
"@	s Color2	m white	c white",
"#	s Color11	m black	c darkkhaki",
"$	s Gray6	m black	c #636363636363",
"%	s Color12	m white	c yellow",
"&	s Gray5	m black	c #737373737373",
"*	s bottomShadowColor	m black	c #636363636363",
/* pixels */
"                                                                ",
"                                                                ",
"             ....                                               ",
"            ..XX..                                              ",
"            .XXXo.                                              ",
"           .XXXXXo.                                             ",
"           .XXXXXX.             o                               ",
"          .XXXXXXXo.             O                              ",
"          .XXXXXXXX.            o                               ",
"         .XXXX++XXXo.            O                              ",
"         .XXXX@@XXXX.           o                               ",
"        .XXXX+@@+XXXo.           O                              ",
"        .XXXX@@@@XXXX.          o                               ",
"       .XXXXX@@@@XXXXo.          O                              ",
"       .XXXXX@@@@XXXXX.         o                               ",
"      .XXXXXX@@@@XXXXXo.         O                              ",
"      .XXXXXX+@@+XXXXXX.        o                               ",
"     .XXXXXXXX@@XXXXXXXo.        O                              ",
"     .XXXXXXXX@@XXXXXXXX.       o                               ",
"    .XXXXXXXXX@@XXXXXXXXo.       O                              ",
"    .XXXXXXXXX++XXXXXXXXX.      o                               ",
"   .XXXXXXXXXXXXXXXXXXXXXo.      O                              ",
"   .XXXXXXXXXXXXXXXXXXXXXX.     o                               ",
"  .XXXXXXXXXXXXXXXXXXXXXXXo.     O                              ",
"  .XXXXXXXXXXX+@XXXXXXXXXXX.    o                               ",
" .XXXXXXXXXXXX@+XXXXXXXXXXXo.    O                              ",
" .XXXXXXXXXXXXXXXXXXXXXXXXXX.   o        .......                ",
".XXXXXXXXXXXXXXXXXXXXXXXXXXXo.   O      .+#+#+#+.               ",
".XXXXXXXXXXXXXXXXXXXXXXXXXXoo.  o      .+#+#+#+##..........     ",
" .oooooooooooooooooooooooooo.$   O    .%.+#+#+#+.@@@@@@@@@&.    ",
"   .........................$   o     .+%.......@+%+%+%+%+#.*   ",
"                                 O    .%+@@@@@@@+%+%+%+%+%&.*   ",
"                                o     .+%+%+%+%+%+%+%+%+%+#.*   ",
"                                 O O  .%+%+%+%+%+%+%+%+%+%&.*   ",
"                                o o o .+%+%+%+%+%+%+%+%+%+#.*   ",
"                                 O    .%+%+%+%+%+%+%+%+%+%&.*   ",
"                                o     .+%+%+%+%+%+%+%+%+%+#.*   ",
"                                 O    .%+%+%+%+%+%+%+%+%+%&.*   ",
"                                o     .+%+%+%+%+%+%+%+%+%+#.*   ",
"                                 O    .%+%+%+%+%+%+%+%+%+%&.*   ",
"                                o     .&#&#&#&#&#&#&#&#&#&#.*   ",
"                                 O     .....................*   ",
"                                o       ********************    ",
"                                 O                              ",
"                                o        .......                ",
"                                 O      .+#+#+#+.               ",
"                                o      .+#+#+#+##..........     ",
"                                 O    .%.+#+#+#+.@@@@@@@@@&.    ",
"                                o     .+%.......@+%+%+%+%+#.*   ",
"                                 O    .%+@@@@@@@+%+%+%+%+%&.*   ",
"                                o     .+%+%+%+%+%+%+%+%+%+#.*   ",
"                                 O    .%+%+%+%+%+%+%+%+%+%&.*   ",
"                                o O O .+%+%+%+%+%+%+%+%+%+#.*   ",
"                                 o o  .%+%+%+%+%+%+%+%+%+%&.*   ",
"                                      .+%+%+%+%+%+%+%+%+%+#.*   ",
"                                      .%+%+%+%+%+%+%+%+%+%&.*   ",
"                                      .+%+%+%+%+%+%+%+%+%+#.*   ",
"                                      .%+%+%+%+%+%+%+%+%+%&.*   ",
"                                      .&#&#&#&#&#&#&#&#&#&#.*   ",
"                                       .....................*   ",
"                                        ********************    ",
"                                                                ",
"                                                                ",
"                                                                "};
