/* XPM */
static char * mount64_xpm[] = {
/* width height ncolors cpp [x_hot y_hot] */
"64 64 12 1 0 0",
/* colors */
" 	s Color1	m black	c black",
".	s none	m none	c none",
"X	s Color2	m white	c white",
"o	s Gray7	m black	c #424242424242",
"O	s Gray8	m black	c #212121212121",
"+	s Gray6	m black	c #636363636363",
"@	s Gray4	m white	c #949494949494",
"#	s Gray1	m white	c #dededededede",
"$	s Color12	m white	c yellow",
"%	s Color11	m black	c darkkhaki",
"&	s Gray5	m black	c #737373737373",
"*	s bottomShadowColor	m black	c #636363636363",
/* pixels */
"                           .....................................",
"  X XX XXX              X  .....................................",
"                           .....................................",
"..                       ........o..............................",
"..  . .................  .......O...............................",
".. . .................X. ........o..............................",
"..  .................X.. .......O...............................",
".. . .................X. ........o..............................",
"..  .................X.. .......O...............................",
".. . ...............X.X. ........o..............................",
"... . ...............X. ........O...............................",
"...  ...............X.X .........o..............................",
"... . .............X.X. ........O...............................",
".... .............X.X. ..........o..............................",
".... ................. .........O...............................",
"..... o++@........ooo ...........o.......X......................",
"...... o+++.....oooo ...........O........#@.....................",
"....... o++++.ooooo .............o.......#@.....................",
"........ o+++ooooo .............X........X@.....................",
"......... o++oooo ..............@#.......X@........X............",
".......... o+ooo ...............O@#.....$#@$......#@............",
"........... +oo .................o@X.$...X@......#@.............",
"........... +oo ................O..@#....X@$..$.X@..............",
".......... .OoO. ................o..@X.$.#@....X@...............",
"......... ... ... ..............O....@X..X@.X.#@.$..............",
"........ ......... ..............o..$.@X.X@X.X@.................",
"....... ..... ..... ............O......@#XX X@  ..$.............",
"...... ............. ............o.$.$.#$X$X@#%# ...............",
"..... ....... .....X. ........X#XX##XXXXX$X@XX#X#X ##X     .....",
".... ...............X. .......@@@@@@@@@#$X$X@@@@@@@@@@XXXX& ....",
".... ........ .......X .........O..... XXX@@X   X#$#$#$#$#% *...",
"... . ..............X.X .........o..$.X#@X@X@#XX#$#$#$#$#$& *...",
"...  ........ .......X. ........O.....X@$X@#X@X#$#$#$#$#$#% *...",
"... ................X.X .........o...#@$#X@$#$@##$#$#$#$#$& *...",
".. . .......&oo......X.X .......O.o.#@ #$X@#$#$@##$#$#$#$#% *...",
"..  .......&o&oo......X. ........o.X@. $#X@$#$#$@X#$#$#$#$& *...",
".. . .....&o&oooo....X.X .......O.X@.. #$X@#$#$#$@$#$#$#$#% *...",
"..  .....&o&o&oooo....X. ........o@... $#X@$#$#$#$#$#$#$#$& *...",
".. . ..&&o&o&ooooooo.X.X .......O..... #$#@#$#$#$#$#$#$#$#% *...",
"..  .&&oo&o&o&oooooooo.. ........o.... $#$#$#$#$#$#$#$#$#$& *...",
".. &&o&o&o&o&ooooooooooo .......O..... &%&%&%&%&%&%&%&%&%&% *...",
".. &o&o&o&o&o&oooooooooo ........o.....                     *...",
".. ooooooooooooooooooooo .......O.......********************....",
"                           ......o..............................",
"  X XX XXX              X  .....O........       ................",
"                           ......o...... #%#%#%# ...............",
"................................O...... #%#%#%#%%          .....",
".................................o.... $ #%#%#%# XXXXXXXXX& ....",
"................................O..... #$       X#$#$#$#$#% *...",
".................................o.... $#XXXXXXX#$#$#$#$#$& *...",
"................................O..... #$#$#$#$#$#$#$#$#$#% *...",
".................................o.... $#$#$#$#$#$#$#$#$#$& *...",
"................................O.o.o. #$#$#$#$#$#$#$#$#$#% *...",
".................................O.O.. $#$#$#$#$#$#$#$#$#$& *...",
"...................................... #$#$#$#$#$#$#$#$#$#% *...",
"...................................... $#$#$#$#$#$#$#$#$#$& *...",
"...................................... #$#$#$#$#$#$#$#$#$#% *...",
"...................................... $#$#$#$#$#$#$#$#$#$& *...",
"...................................... &%&%&%&%&%&%&%&%&%&% *...",
".......................................                     *...",
"........................................********************....",
"................................................................",
"................................................................",
"................................................................"};
