/* XPM */
static char * move64_xpm[] = {
/* width height ncolors cpp [x_hot y_hot] */
"64 64 13 1 0 0",
/* colors */
" 	s none	m none	c none",
".	s Color1	m black	c black",
"X	s Gray1	m white	c #dededededede",
"o	s Gray5	m black	c #737373737373",
"O	s bottomShadowColor	m black	c #636363636363",
"+	s Gray6	m black	c #636363636363",
"@	s Color11	m black	c darkkhaki",
"#	s Color2	m white	c white",
"$	s Color12	m white	c yellow",
"%	s Color3	m black	c darkred",
"&	s topShadowColor	m white	c #bdbdbdbdbdbd",
"*	s Gray2	m white	c #bdbdbdbdbdbd",
"=	s Gray4	m white	c #949494949494",
/* pixels */
" . . . . . . . .                                                ",
". X X X X X X . .                                               ",
" X X X X X X X X .                                              ",
". X X X X X X . X .                                             ",
" X X X X X X X X X .                                            ",
". X X X X X X . . .                                             ",
" X X X X X X X X o .                                            ",
". X X X X X X X X o O                                           ",
" X X X X X X X X X .                                            ",
". X X X X X X X X o O                                           ",
" X X X X + + + + X .                                            ",
". X X X o @ @ @ + o O                                           ",
" X X X o @ @ @ @ + + + + + ++                                   ",
". X X o @ @ @ @ @ # # # # # #.                                  ",
" X X $ @ @ @ @ @ # $ $ $ $ $ .                                  ",
". X + $ + + + + # $ $ $ $ $ @ O                                 ",
" X X $ # # # # # $ $ $ $ $ $ .                                  ",
". X + $ $ $ $ $ $ $ $ $ $ $ @ O                                 ",
" X X $ $ $ $ $ $ $ $ $ $ $ $ .                                  ",
". X + $ $ $ $ $ $ $ $ $ $ $ @ O                                 ",
" X X $ $ $ $ $ $ $ $ $ $ $ $ .                                  ",
". X + $ $ $ $ $ $ $ $ $ $ $ @ O                                 ",
" X X $ $ $ $ $ $ $ $ $ $ $ $ .                                  ",
". X + $ $ $ $ $ $ $ $ $ $ $ @ O                                 ",
" X X $ $ $ $ $ $ $ $ $ $ $ $ .                                  ",
". + + $ $ $ $ $ $ $ $ $ $ $ @ O                                 ",
"   . $ $ $ $ $ $ $ $ $ $ $ $ .                                  ",
"    + @ @ @ @ @ @ @ @ @ @ @ @ .....................             ",
"     . . . . . . . . . . . . o.##################.#.            ",
"      o O O O O O O O O O O o .##################.##.           ",
"                              .##################.###.          ",
"                              .##################.####.         ",
"          %                   .##################.#####.        ",
"          %O                  .##################.......        ",
"         %%O                  .####################++++.O       ",
"         %%O                  .#######################+.O       ",
"        %%%O                  .#######################+.O       ",
"        %%%O                  .#######################+.O       ",
"        %%%O                  .#######################+.O       ",
"        %%%O                  .#######################+.O       ",
"        %%%%        O         .#######################+.O       ",
"        %%%%O      O%O        .#######################+.O       ",
"        %%%%%O     %%%O       .#######.........#######o.O       ",
"        %%%%%%O    %%%%O      .######.@X@X@X@X@.######+.O       ",
"        &%%%%%%OOOO%%%%%O     .#####.@X@X@X@X@X@..............  ",
"        &%%%%%%%%%%%%%%%%O    .####.@X@X@X@X@X@*.############*. ",
"         &%%%%%%%%%%%%%%%%O   .###.X.@*@*@*@*@*.#X$X$X$X$X$X$=. ",
"          &%%%%%%%%%%%%%%%%O  .###.$X..........#X$X$X$X$X$X$X@.O",
"           &&%%%%%%%%%%%%%%%  .###.X$##########X$X$X$X$X$X$X$=.O",
"             &&%%%%%%%%%%%%&  .###.$X$X$X$X$X$X$X$X$X$X$X$X$X@.O",
"               &&&&%%%%%%%&   .###.X$X$X$X$X$X$X$X$X$X$X$X$X$=.O",
"                   %%%%%&&    .###.$X$X$X$X$X$X$X$X$X$X$X$X$X@.O",
"                   %%%&&      .###.X$X$X$X$X$X$X$X$X$X$X$X$X$=.O",
"                   %&&        .###.$X$X$X$X$X$X$X$X$X$X$X$X$X@.O",
"                   &          .###.X$X$X$X$X$X$X$X$X$X$X$X$X$=.O",
"                              .###.$X$X$X$X$X$X$X$X$X$X$X$X$X@.O",
"                              .###.X$X$X$X$X$X$X$X$X$X$X$X$X$=.O",
"                              .###.$X$X$X$X$X$X$X$X$X$X$X$X$X@.O",
"                              .###.X$X$X$X$X$X$X$X$X$X$X$X$X$=.O",
"                              ..++.$X$X$X$X$X$X$X$X$X$X$X$X$X@.O",
"                                ...X$X$X$X$X$X$X$X$X$X$X$X$X$=.O",
"                                  .@=@=@=@=@=@=@=@=@=@=@=@=@=@.O",
"                                  .............................O",
"                                    OOOOOOOOOOOOOOOOOOOOOOOOOOO "};
