/* XPM */
static char * umount64_xpm[] = {
/* width height ncolors cpp [x_hot y_hot] */
"64 64 13 1 0 0",
/* colors */
" 	s Color1	m black	c black",
".	s none	m none	c none",
"X	s Color2	m white	c white",
"o	s Gray8	m black	c #212121212121",
"O	s Gray7	m black	c #424242424242",
"+	s Gray6	m black	c #636363636363",
"@	s Gray4	m white	c #949494949494",
"#	s Gray3	m white	c #adadadadadad",
"$	s Gray1	m white	c #dededededede",
"%	s Color11	m black	c darkkhaki",
"&	s Color12	m white	c yellow",
"*	s bottomShadowColor	m black	c #636363636363",
"=	s Gray5	m black	c #737373737373",
/* pixels */
"                           .....................................",
"  X XX XXX              X  .....................................",
"                           .....................................",
"..                       .......................................",
"..  . .................  .......................................",
".. . .................X. .......................................",
"..  .................X.. .......o...............................",
".. . .................X. ........O..............................",
"..  .................X.. .......o...............................",
".. . ...............X.X. ........O..............................",
"... . ...............X. ........o...............................",
"...  ...............X.X .........O..............................",
"... . .............X.X. ........o...............................",
".... .............X.X. ..........O..............................",
".... ................. .........o...............................",
"..... O++@........OOO ...........O..............................",
"...... O+++.....OOOO ...........o...............................",
"....... O++++.OOOOO .............O..............................",
"........ O+++OOOOO .............o...............................",
"......... O++OOOO ...............O..............................",
".......... O+OOO ...............o...............................",
"........... +OO .................O..............................",
"........... +OO ................o...............................",
".......... .oOo. ................O..............................",
"......... ... ... ..............o...............................",
"........ ......... ..............O..............................",
"....... ..... ..... ............o.........#.#.#.................",
"...... ............. ............O.......$.$.$.$................",
"..... ....... .....X. ..........o.......$.$.$.$.%.@.@.@.@.@.....",
".... ...............X. ..........O.....&.$.$.$.$.X.X.X.X.X.O....",
".... ........ .......X .........o.....@.&.#.#.#.X.&.&.&.&.%.*...",
"... . ..............X.X .........O.....&.X.X.X.X.&.&.&.&.&.O....",
"...  ........ .......X. ........o.....@.&.&.&.&.&.&.&.&.&.%.*...",
"... ................X.X .........O.O...&.&.&.&.&.&.&.&.&.&.O....",
".. . .......=OO......X.X .......o.o.o.@.&.&.&.&.&.&.&.&.&.%.*...",
"..  .......=O=OO......X. ........O.....&.&.&.&.&.&.&.&.&.&.O....",
".. . .....=O=OOOO....X.X .......o.....@.&.&.&.&.&.&.&.&.&.%.*...",
"..  .....=O=O=OOOO....X. ........O.....&.&.&.&.&.&.&.&.&.&.O....",
".. . ..==O=O=OOOOOOO.X.X .......o.....@.&.&.&.&.&.&.&.&.&.%.*...",
"..  .==OO=O=O=OOOOOOOO.. ........O.....&.&.&.&.&.&.&.&.&.&.O....",
".. ==O=O=O=O=OOOOOOOOOOO .......o.....@.%.%.%.%.%.%.%.%.%.%.*...",
".. =O=O=O=O=O=OOOOOOOOOO ........O.....O.O.O.O.O.O.O.O.O.O.O....",
".. OOOOOOOOOOOOOOOOOOOOO .......o.......*.*.*.*.*.*.*.*.*.*.....",
"                           ......O..............................",
"  X XX XXX              X  .....o........       ................",
"                           ......O...... $%$%$%$ ...............",
"................................o...... $%$%$%$%%          .....",
".................................O.... & $%$%$%$ XXXXXXXXX= ....",
"................................o..... $&       X$&$&$&$&$% *...",
".................................O.... &$XXXXXXX$&$&$&$&$&= *...",
"................................o..... $&$&$&$&$&$&$&$&$&$% *...",
".................................O.... &$&$&$&$&$&$&$&$&$&= *...",
"................................o.O.O. $&$&$&$&$&$&$&$&$&$% *...",
".................................o.o.. &$&$&$&$&$&$&$&$&$&= *...",
"...................................... $&$&$&$&$&$&$&$&$&$% *...",
"...................................... &$&$&$&$&$&$&$&$&$&= *...",
"...................................... $&$&$&$&$&$&$&$&$&$% *...",
"...................................... &$&$&$&$&$&$&$&$&$&= *...",
"...................................... =%=%=%=%=%=%=%=%=%=% *...",
".......................................                     *...",
"........................................********************....",
"................................................................",
"................................................................",
"................................................................"};
